icons/1_Primary/Fastly.svg

<svg width="1024" height="1024" fill="none" xmlns="http://www.w3.org/2000/svg"><g clip-path="url(#a)"><path d="M512 1024c282.77 0 512-229.23 512-512S794.77 0 512 0 0 229.23 0 512s229.23 512 512 512Z" fill="#FF837D"/><path d="M633.9 408.1v176.2h52.9v-26.9h-17.5V381.2h-35.4v26.9ZM174.5 557.4h18v-85h-18V449l18-3v-23.7c0-28.7 6.2-41.1 42.8-41.1 7.9 0 17.2 1.2 25.4 2.6l-4.9 28.8c-5.5-.9-8.3-1-11.8-1-12.9 0-16.1 1.3-16.1 13.9V446h26.7v26.3h-26.7v85h17.8v26.9h-71.2v-26.8Zm441.4-8.5c-5.5 1.2-10.4 1-13.9 1.1-14.6.4-13.3-4.4-13.3-18.2v-59.4h27.7V446h-27.7v-64.8h-35.4v157.9c0 31 7.6 45.1 41 45.1 7.9 0 18.7-2 26.9-3.8l-5.3-31.5ZM509 472.3v-4.7c-10.7-2-21.4-2-27.1-2-16.5 0-18.5 8.7-18.5 13.5 0 6.7 2.3 10.3 20.1 14.2 26.1 5.9 52.3 12 52.3 44.4 0 30.7-15.8 46.6-49.1 46.6-22.3 0-43.8-4.8-60.3-9v-26.5h26.8v4.7c11.5 2.2 23.6 2 30 2 17.6 0 20.4-9.5 20.4-14.5 0-7-5-10.3-21.5-13.7-31.1-5.3-55.7-15.9-55.7-47.5 0-29.9 20-41.6 53.2-41.6 22.5 0 39.7 3.5 56.1 7.7v26.3H509v.1Zm-163 23.3-2.7-2.7-13.7 11.9c-.7-.2-1.4-.4-2.2-.4-3.7 0-6.7 3.1-6.7 6.9 0 3.8 3 6.9 6.7 6.9s6.7-3.1 6.7-6.9c0-.7-.1-1.4-.3-2.1l12.2-13.6Zm54.3 53.3V438.6h-35.4v10.3c-7.3-4.4-15.4-7.5-24.1-9.1h.2v-12.2h4.3v-9h-35.7v9h4.3v12.2h.2c-33.9 6.2-59.6 35.9-59.6 71.6 0 40.2 32.6 72.9 72.8 72.9 13.7 0 26.6-3.8 37.5-10.4l6.4 10.4h37.4v-35.4h-8.3Zm-70.8-.1v-4.2h-4.2v4.2c-19-1.1-34.2-16.4-35.2-35.4h4.2v-4.2h-4.2c1.1-18.9 16.3-34.1 35.2-35.2v4.2h4.2V474c18.6 1 33.7 15.6 35.3 34.1v1.2h-4.3v4.2h4.3v1.2c-1.6 18.4-16.6 33.1-35.3 34.1ZM776.4 446h73.1v26.3H832l-44.8 110.3c-12.8 31-33.9 60.1-66.1 60.1-7.9 0-18.4-.9-25.7-2.6l3.2-32.2c4.7.9 10.8 1.5 14 1.5 14.9 0 31.7-9.2 37-25.3l-45.4-111.8h-17.5V446h73.1v26.3h-17.5l25.7 63.3 25.7-63.3h-17.4l.1-26.3Z" fill="#fff"/></g><defs><clipPath id="a"><path fill="#fff" d="M0 0h1024v1024H0z"/></clipPath></defs></svg>

<svg width="1024" height="1024" viewBox="0 0 1024 1024" fill="none" xmlns="http://www.w3.org/2000/svg">
<g clip-path="url(#clip0_2_2166)">
<path d="M512 1024C794.77 1024 1024 794.77 1024 512C1024 229.23 794.77 0 512 0C229.23 0 0 229.23 0 512C0 794.77 229.23 1024 512 1024Z" fill="#FF837D"/>
<path d="M633.9 408.1V584.3H686.8V557.4H669.3V381.2H633.9V408.1ZM174.5 557.4H192.5V472.4H174.5V449L192.5 446V422.3C192.5 393.6 198.7 381.2 235.3 381.2C243.2 381.2 252.5 382.4 260.7 383.8L255.8 412.6C250.3 411.7 247.5 411.6 244 411.6C231.1 411.6 227.9 412.9 227.9 425.5V446H254.6V472.3H227.9V557.3H245.7V584.2H174.5V557.4ZM615.9 548.9C610.4 550.1 605.5 549.9 602 550C587.4 550.4 588.7 545.6 588.7 531.8V472.4H616.4V446H588.7V381.2H553.3V539.1C553.3 570.1 560.9 584.2 594.3 584.2C602.2 584.2 613 582.2 621.2 580.4L615.9 548.9ZM509 472.3V467.6C498.3 465.6 487.6 465.6 481.9 465.6C465.4 465.6 463.4 474.3 463.4 479.1C463.4 485.8 465.7 489.4 483.5 493.3C509.6 499.2 535.8 505.3 535.8 537.7C535.8 568.4 520 584.3 486.7 584.3C464.4 584.3 442.9 579.5 426.4 575.3V548.8H453.2V553.5C464.7 555.7 476.8 555.5 483.2 555.5C500.8 555.5 503.6 546 503.6 541C503.6 534 498.6 530.7 482.1 527.3C451 522 426.4 511.4 426.4 479.8C426.4 449.9 446.4 438.2 479.6 438.2C502.1 438.2 519.3 441.7 535.7 445.9V472.2H509V472.3ZM346 495.6L343.3 492.9L329.6 504.8C328.9 504.6 328.2 504.4 327.4 504.4C323.7 504.4 320.7 507.5 320.7 511.3C320.7 515.1 323.7 518.2 327.4 518.2C331.1 518.2 334.1 515.1 334.1 511.3C334.1 510.6 334 509.9 333.8 509.2L346 495.6ZM400.3 548.9V438.6H364.9V448.9C357.6 444.5 349.5 441.4 340.8 439.8H341V427.6H345.3V418.6H309.6V427.6H313.9V439.8H314.1C280.2 446 254.5 475.7 254.5 511.4C254.5 551.6 287.1 584.3 327.3 584.3C341 584.3 353.9 580.5 364.8 573.9L371.2 584.3H408.6V548.9H400.3ZM329.5 548.8V544.6H325.3V548.8C306.3 547.7 291.1 532.4 290.1 513.4H294.3V509.2H290.1C291.2 490.3 306.4 475.1 325.3 474V478.2H329.5V474C348.1 475 363.2 489.6 364.8 508.1V509.3H360.5V513.5H364.8V514.7C363.2 533.1 348.2 547.8 329.5 548.8ZM776.4 446H849.5V472.3H832L787.2 582.6C774.4 613.6 753.3 642.7 721.1 642.7C713.2 642.7 702.7 641.8 695.4 640.1L698.6 607.9C703.3 608.8 709.4 609.4 712.6 609.4C727.5 609.4 744.3 600.2 749.6 584.1L704.2 472.3H686.7V446H759.8V472.3H742.3L768 535.6L793.7 472.3H776.3L776.4 446Z" fill="white"/>
</g>
<defs>
<clipPath id="clip0_2_2166">
<rect width="1024" height="1024" fill="white"/>
</clipPath>
</defs>
</svg>
